icons/op-mail-sent-16.svg

<svg width="16" height="16" viewBox="0 0 16 16" fill="none" xmlns="http://www.w3.org/2000/svg">
<g clip-path="url(#clip0_35_1782)">
<path fill-rule="evenodd" clip-rule="evenodd" d="M4.49654e-09 2.75C4.49654e-09 1.7835 0.783502 1 1.75 1H14.25C15.2165 1 16 1.7835 16 2.75V3.48594C16.0002 3.49485 16.0002 3.50376 16 3.51265V8.25C16 8.66421 15.6642 9 15.25 9C14.8358 9 14.5 8.66421 14.5 8.25V4.80902L8.37929 8.39702C8.14507 8.53432 7.85493 8.53432 7.62071 8.39702L1.5 4.80902V11.25C1.5 11.3881 1.61193 11.5 1.75 11.5H7.25C7.66421 11.5 8 11.8358 8 12.25C8 12.6642 7.66421 13 7.25 13H1.75C0.783501 13 4.49654e-09 12.2165 4.49654e-09 11.25V3.51282C-0.000162567 3.50381 -0.000162957 3.49479 4.49654e-09 3.48577V2.75ZM14.5 3.07029V2.75C14.5 2.61193 14.3881 2.5 14.25 2.5H1.75C1.61193 2.5 1.5 2.61193 1.5 2.75V3.07029L8 6.88063L14.5 3.07029Z" fill="#1F2328"/>
<path d="M15.9305 11.8312L13.1897 9.07003C13.1566 9.03661 13.1144 9.01384 13.0685 9.0046C13.0225 8.99537 12.9749 9.00009 12.9316 9.01817C12.8883 9.03624 12.8513 9.06686 12.8253 9.10614C12.7993 9.14542 12.7855 9.19158 12.7856 9.23879L12.7856 11.2849H9.7098C9.52155 11.2849 9.34101 11.3602 9.2079 11.4944C9.07478 11.6285 9 11.8103 9 12C9 12.1897 9.07478 12.3715 9.2079 12.5056C9.34101 12.6398 9.52155 12.7151 9.7098 12.7151H12.7856V14.7612C12.7855 14.8084 12.7993 14.8546 12.8253 14.8939C12.8513 14.9331 12.8883 14.9638 12.9316 14.9818C12.9749 14.9999 13.0225 15.0046 13.0685 14.9954C13.1144 14.9862 13.1566 14.9634 13.1897 14.93L15.9305 12.1688C15.9525 12.1466 15.97 12.1203 15.9819 12.0914C15.9939 12.0624 16 12.0314 16 12C16 11.9686 15.9939 11.9376 15.9819 11.9086C15.97 11.8797 15.9525 11.8534 15.9305 11.8312Z" fill="#1F2328"/>
</g>
<defs>
<clipPath id="clip0_35_1782">
<rect width="16" height="16" fill="white"/>
</clipPath>
</defs>
</svg>

<svg xmlns="http://www.w3.org/2000/svg" width="16" height="16" viewBox="0 0 16 16"><path d="M0 2.75C0 1.783.784 1 1.75 1h12.5c.967 0 1.75.783 1.75 1.75v5.5a.75.75 0 0 1-1.5 0V4.809L8.379 8.397a.75.75 0 0 1-.758 0L1.5 4.809v6.441c0 .138.112.25.25.25h5.5a.75.75 0 0 1 0 1.5h-5.5A1.75 1.75 0 0 1 0 11.25Zm14.5.32v-.32a.25.25 0 0 0-.25-.25H1.75a.25.25 0 0 0-.25.25v.32L8 6.881Z"/><path d="M15.931 11.831a.24.24 0 0 1 .051.26.24.24 0 0 1-.051.078L13.19 14.93a.238.238 0 0 1-.365-.036.233.233 0 0 1-.039-.133v-2.046H9.71a.708.708 0 0 1-.502-.209.718.718 0 0 1 0-1.012.708.708 0 0 1 .502-.209h3.076V9.239a.233.233 0 0 1 .146-.221.238.238 0 0 1 .258.052Z"/></svg>
